X:1
T:Puer natus
T:Puer natus
T:André Vierendeels (26/11/10)
C:André Vierendeels
C:(26/11/10)
%%score [ 1 2 3 4 ]
L:1/8
Q:1/4=120
M:3/2
K:C
V:1 treble nm="Soprano" snm="S"
V:2 treble nm="Alto" snm="A"
V:3 treble-8 nm="Tenor" snm="T"
V:4 bass nm="Bass" snm="B"
V:1
 z8 A4 | A8 A4 | B8 B4 | c8 A4 | !fermata!G8 F4 | c8 d4 | c8 B4 | !fermata!c8 c4 | c8 c4 | B8 B4 | %10
w: Pu-|er na-|tus in|Beth- le-|hem, in|Beth- *|* le-|hem, un-|de gau-|det Je-|
w: Hic|ia- cet|in prae-|se- pi-|o, prae-|se- *|* pi-|o, qui|re- get|si- ne|
w: Ma-|gi de|Sa- ba|ve- ni-|unt, ve-||* ni-|unt, au-|rum, thus,|myr- rham|
w: In|hoc na-|ta- li|gau- di-|o, na-|ta- li|gau- di-|o be-|ne- di-|ca- mus|
w: Lau-|de- tur|san- cta|Tri- ni-|tas, san-|* cta|Tri- ni-|tas, De-|o di-|ca- mus|
 A8 ^G4 | !fermata!A8 A4 | G8 A4 | B8 B4 | c8 B4 | A8 ^G4 | !fermata!A8 d4 | c8 c4 | d8 A4 | %19
w: ru- sa-|lem, Al-|le- lu-|ia, Al-|le- *|* lu-|ia, Al-|le- lu-|ia, Al-|
w: ter- mi-|no, *||||||||
w: of- fe-|runt, *||||||||
w: Do- mi-|no, *||||||||
w: gra- ti-|as, *||||||||
 A3 B cd e3 d B2 | !fermata!^c12 |] %21
w: le- * * * * * lu-|ia.|
w: ||
w: ||
w: ||
w: ||
V:2
 z8 E4 | C4 D2 E2 F4 | E4 D2 C2 D4 | E4 F2 G2 ^F4 | !fermata!D8 C4 | E4 F2 G2 F4 | E2 D2 E2 F2 G4 | %7
w: Pu-|er na- * *|tus _ _ in|Beth- * * le-|hem, in|Beth- * * *|* * * * le-|
w: Hic|ia- cet _ _|in _ _ prae-|se- * * pi-|o, prae-|se- * * *|* * * * pi-|
w: Ma-|gi * * de|Sa- * * ba|ve- * * ni-|unt ve-||* * * * ni-|
w: In|hoc _ _ na-|ta- * * li|gau- * * di-|o, na-|ta- * * li|gau- * * * di-|
w: Lau-|de- * * tur|san- * * cta|Tri- * * ni-|tas, san-|* * * cta|Tri- * * * ni-|
 !fermata!E8 E4 | F2 E2 F2 G2 E4 | G8 ^F4 | ^F4 D4 E4 | !fermata!E8 D4 | D6 E2 F4 | D4 D2 E2 ^F4 | %14
w: hem, un-|de _ _ _ gau-|det Je-|ru * sa-|lem, Al-|le- * lu-|ia, Al- * *|
w: o, qui|re- * * * get|si- ne|ter- * mi-|no *|||
w: unt, au-|rum, _ _ _ thus,|myr- rham|of- * fe-|runt, *|||
w: o be-|ne- * * * di-|ca- mus|Do- * mi-|no, *|||
w: tas, De-|o _ _ _ di-|ca- mus|gra- * ti-|as, *|||
 A4 G2 E4 D2 | E8 E4 | !fermata!E8 F4 | A8 E4 | G8 ^F4 | E4 A4 ^G4 | !fermata!A12 |] %21
w: le- * * *|* lu-|ia, Al-|le- lu-|ia, Al-|le- * lu-|ia.|
w: |||||||
w: |||||||
w: |||||||
w: |||||||
V:3
 z8 A4 | A4 B2 c2 d2 A2 | G2 A2 B2 c2 B4 | G8 A4 | !fermata!B8 A4 | c2 B2 A2 G2 A4 | c2 B2 A4 B4 | %7
w: Pu-|er na- * * *|tus _ _ _ in|Beth- le-|hem, in|Beth- * * * *|* * * le-|
w: Hic|ia- cet _ _ _|in _ _ _ prae-|se- pi-|o, prae-|se- * * * *|* * * pi-|
w: Ma-|gi de _ _ _|Sa- * * * ba|ve- ni-|unt, ve-||* * * ni-|
w: In|hoc na- * * *|ta- * * * li|gau- di-|o, na-|ta- * * * lu|gau- * * di-|
w: Lau-|de- tur _ _ _|san- * * * cta|Tri- ni-|tas, san-|* * * * cta|Tri- * * ni-|
 !fermata!c8 G4 | c2 A4 _B2 c4 | B8 d4 | A4 B8 | !fermata!^c8 A4 | B8 A4 | G2 A2 B2 c2 d4 | %14
w: hem, un-|de- * * gau-|det Je|ru- sa|lem, Al-|le- lu|ia _ _ _ _|
w: o, qui|re- * * get|sin- ne|ter- mi-|no, *|||
w: unt, au-|rum, _ _ thus,|myr- rham|of- fe-|runt, *|||
w: o be-|ne * * di-|ca- mus|Do- mi-|no, *|||
w: tas, De-|o _ _ di-|ca- mus|gra- ti-|as, *|||
 e4 B2 c2 B4 | c4 B8 | !fermata!^c8 A4 | A8 G4 | B6 G2 A4 | c4 B8 | !fermata!e12 |] %21
w: Al- le- * *|* lu-|ia, Al-|le lu-|ia, Al- le-|* lu-|ia.|
w: |||||||
w: |||||||
w: |||||||
w: |||||||
V:4
 z8 A,4 | A,,8 D,4 | E,8 G,4 | C,8 D,4 | !fermata!G,8 F,4 | C,8 D,4 | A,,2 B,,2 C,2 D,2 E,4 | %7
w: Pu-|er na-|tus in|Beth- le-|hem, in|Beth- *|* * * * le-|
w: Hic|ia- cet|in prae-|se- pi-|o, prae-|se- *|* * * * pi-|
w: Ma-|gi de|Sa- ba|ve- ni-|unt, ve-||* * * * ni-|
w: In|hoc na-|ta- li|gau- di-|o, na-|ta- li|gau- * * * di-|
w: Lau-|de- tur|san- cta|Tri- ni-|tas, san-|* cta|Tri- * * * ni-|
 !fermata!A,,8 C,4 | F,8 A,4 | E,2 ^F,2 G,2 A,2 B,4 | D,4 E,2 F,2 E,2 D,2 | !fermata!A,,8 D,4 | %12
w: hem, un-|da gau-|det _ _ _ Je-|ru- sa- * * *|lem, Al-|
w: o, qui|re- get|si- * * * ne|ter- mi- * * *|no, *|
w: unt, au-|run, thus,|myr- * * * rham|of- fe- * * *|runt, *|
w: o be-|ne di-|ca- * * * mus|Do- mi- * * *|no, *|
w: tas, De-|o di-|ca- * * * mus|gra- ti- * * *|as, *|
 G,4 F,2 E,2 D,4 | G,,8 B,,4 | A,,8 G,,4 | A,,4 E,8 | !fermata!A,,8 D,4 | F,4 E,2 D,2 C,4 | %18
w: le- * * lu-|ia, Al|le- *|* lu-|ia, Al-|le- * * lu-|
w: ||||||
w: ||||||
w: ||||||
w: ||||||
 G,4 F,2 E,2 D,4 | A,4 E,8 | !fermata!A,12 |] %21
w: ja, Al- * le-|* lu-|ia.|
w: |||
w: |||
w: |||
w: |||

